X:4
T:The Wish
T:Harmony 2
C:Lyric Todkill
L:1/8
R:Slow Air
M:3/4
K:D
Q:"68 bpm"
[| {g}Bd {ag}a3g | {a}fa {c}d3c | {g}Bd {gf}g3B | {d}c4 {G}A2 | 
{g}B2 {g}e/d/(B B2)| {g}B2 {G}A4 | {g}(G2 G2) {g}(A2 | A3) B {g}dc ||
{g}dA/{d}A/ {g}dA/{d}A/ {g}B/d/g/f/ | a/g/{a}f {gc}d2e2 | {g}dA/{d}A/ {g}dA/{d}A/ B/d/B | {gc}d4 {g}cB |
{g}f3 e {g}df | a/g/f {gc}d4 | {g}e2 c2 {g}e2 | {g}f4 {G}A2 |
"Watch foot"{g}!tenuto!B!tenuto!d {ag}a3g [M:5/4]| {a}fd {g}A/B/d {g}B3 {G}A {g}A/B/c "Spey Time"[M:C]|{g}c4 {e}A4 |]

